X: 1389
T: Muntazırdır Sana Uşşak
C: Dellalzâde İsmail Efendi
O: Turkey
F: http://compmusic.upf.edu/node/140
N: ussak--sarki--aksak--muntazirdir_sana--dellalzade_haci_ismail_efendi
N: makam= ussak
N: form= sarki
N: usul= aksak = 9/8
M: 9/8
L: 1/16
K: C _2/4B   
Q: 1/4=102
%%MIDI tuningsystem comma53
z2G4A2 A4 A6 | A2 c2_1/4B2 A2G2 ^F2E4D2  | \
w:   |   | 
z2G2 ^F2E2 F2G2 A6 | A2 E4 D2AG ^FGA6  | 
w:   |   | 
z2G4A2 A4 A6 | A2 c2_1/4B2 A2G2 ^F2E4D2  | \
w:   |   | 
z2G2 ^F2E2 F2G2 A6 | A2 E4 D2AG ^FGA6  | 
w:   |   | 
z2c_1/4B c2d2 c2B2 A4 B2 | G4f2 f2e2 d2c2 _1/4BAG2  | \
w:   |   | 
z2c4_1/4B2 A2G2 d4 cB | 
w:   | 
_1/4B3AB2 c2B2 A2B4z2  | _1/4B2c6 B2A2 G4 ^F2 | \
w:   |   | 
G4A2 _1/4B2G4c2 d2c2  | 
w:   | 
_1/4B2B2 A2B2 c2B2 A2G2 B6z4B2 c2B2 A2G4^F2 G4 A2B2 G4 c2 | 
w:   | 
d2 c2_1/4B2 B3A B2c2 B2c2  | d4 z2d2 d4 _7/8e2^f3e | \
w:   |   | 
d2 c2_1/4B2 ^f2_7/8e2 e2d2 d2c2  | 
w:   | 
c2_1/4B2 A2B2 c2d2 _7/8e2^f2 g2 | \
w:   | 
a6 z2a2 g2f2 f2e2  | e2d2 c2d2 g^f_7/8ed c2c2 _1/4B2 | 
w:   |   | 
c2 _1/4B2A2 A8 A8 z2G4c2 c2G4 | c2 c2c2 G4 c2c2 G4  | \
w:   |   | 
c2c2 c2g2 g6g8g2 g8 g8 z2_7/8ba g^f_7/8ed c2_1/4Bc de | 
w:   | 
fg e2g2 f8 f8 (3e^dez2 g6_7/8ba g^f | \
w:   | 
_7/8e4dc c8 c8 z2G4c2 c2G4 | 
w:   | 
c2 c2c2 G4 c2c2 G4  | c2c2 c2_1/4Bc defg a_1/4bc'_7/8b ag | 
w:   |   | 
^f_7/8e d2g2 f6ed d8 z2z4a2 g2g2 f2 | \
w:   | 
_7/8e2 d2c2 g8 g^f=ef  | 
w:   | 
g6z4a2 g2g2 f2 | f4e2 g^fga g2f2 _7/8e3d  | \
w:   |   | 
c6_1/4B2 c2d2 _7/8e2^f2 g2 | 
w:   | 
a2 _1/4b2ag g2^f2 _7/8e2d2 c2_1/4B2  | \
w:   | 
A4 G2z2 c2_1/4B2 c2B2 A2 | _1/4B2 A4 G2z2 _7/8e4 eddc  | 
w:   |   | 
c_1/4Bc4z2 c2c4d2 d4 a2g2 f2f2 e2e2 d2d2  | \
w:   | 
e2d2 c2_1/4B2 B2d4_7/8e2 d2 | 
w:   | 
c2 ^f2_7/8e2 d2d8d8z2 =e2dc c4 c2 | \
w:   | 
_1/4B2 B2A2 G2z2 c2B2 c2B2  | 
w:   | 
A2_1/4B2 A4 G2z2 c2B2 c2 | _1/4B2 A2B4z2 B2c6  | \
w:   |   | 
_1/4B2A2 G4 ^F2G4A2 B2 | 
w:   | 
G4c2 d2c2 _1/4B2B2 A2B2  | c2_1/4B2 A2G2 B6z4 | \
w:   |   | 
_1/4B2 c2B2 A2G4^F2 G4  | 
w:   | 
A2_1/4B2 G4 c2d2 c2B2 B3A B2c2 B2c2 d4 z2d2  | \
w:   | 
d4 _7/8e2^f3ed2 c2_1/4B2 f2 | 
w:   | 
_7/8e2 e2d2 d2c2 c2_1/4B2 A2B2  | \
w:   | 
c2d2 _7/8e2^f2 g2a6 z2 | a2 g2f2 f2e2 e2d2 c2d2  | 
w:   |   | 
g^f_7/8ed c2c2 _1/4B2c2 B2A2 A8 A8 z2d3cB2 c2A4A4G2 c2 | 
w:   | 
_1/4BA B2c2 d4 d4 z2d2  | e2c2 _1/4B2A4A4G2 c2 | \
w:   |   | 
_1/4BA B2c2 d4 d4 z2d2  | 
w:   | 
edc2 _1/4B2c2 d2_7/8e2 ^f2g2 g2 | \
w:   | 
^f_7/8e f2ed edc_1/4B c4 z2c2  | 
w:   | 
_1/4BAB2 c2d4e2 d2c2 c2 | _1/4B2 B2A2 A4 A6d3cB2 c2A4A4G2 c2 | 
w:   |   | 
_1/4BA B2c2 d4 d4 z2d2  | e2c2 _1/4B2A4A4G2 c2 | \
w:   |   | 
_1/4BA B2c2 d4 d4 z2d2  | 
w:   | 
edc2 _1/4B2c2 d2_7/8e2 ^f2g2 g2 | \
w:   | 
^f_7/8e f2ed edc_1/4B c4 z2c2  | 
w:   | 
_1/4BAB2 c2d4e2 d2c2 c2 | _1/4B2 B2A2 A4 A6|
w:   |   | 


